X:702
T:Reel 702
M:4/4
K:Amaj
L:1/8
D|EDEF G2EF|ED (3EB,E DB,G,B,|A,2CD E2EF|GEDB, CA,A,C|B,G,B,D E2EF|GEAF GEFG|EFGB AGBA|GEDB, CA,A,|G|A2cA A2BA|GEEF GABG|A2cA AcBA|GEDB, CA,A,G|A2cA EAcA|G2BG d2GB|AcBA GABA|GEDB, B,A,A,|
